X:1
T:Je ne mange point de porc
T:Je ne mange point de porc
T:Claudin de Sermisy
C:Claudin de Sermisy
%%score [ 1 2 3 4 ]
L:1/8
Q:1/4=156
M:2/2
K:F
V:1 treble nm="Soprano" snm="S"
V:2 treble-8 nm="Alto" snm="A"
V:3 treble-8 nm="Tenor" snm="T"
V:4 bass nm="Bass" snm="B"
V:1
 z4 F4- | F4 z2 B2 | B2 B2 G2 G2 | c2 c2 A4 | z2 F2 F2 B2 | A2 G2 G2 ^F2 | G6 FE | E4 z2 D2 | %8
w: Plus,|* plus|ne suis ce que|j’ay es- té,|Plus ne suis|ce que j’ay es-|té, * *|* Et|
 D2 E2 F3 F | F2 E2 F4 |[M:6/4] E2 G2- GF F4 E2 | F4 z4 F4- |[M:2/2] F4 z2 B2 | B2 B2 G2 G2 | %14
w: si ne le puis|ja- mais es-||tre; Mon,|* mon|beau prin- temps et|
 c2 c2 A4 | z2 F2 F2 B2 | A2 G2 G2 ^F2 | G6 FE | E4 z2 D2 | D2 E2 F3 F | F2 E2 F4 | %21
w: mon es- té,|Mon beau prin-|temps et mon es-|té * *|* Ont|fait le sault par|la fe- nes-|
[M:6/4] E2 G2- GF F4 E2 |[M:2/2] F4 z2 G2 | B4 z2 G2 | G2 F2 E3 E | G2 G2 F4 | E8 | z2 F2 F2 F2 | %28
w: |tre. A-|mour, a-|mour, tu as es-|té mon mais-|tre:|Je t’ai ser-|
 B3 A G2 F2 | E2 G2 G2 G2 | A4 B3 A | G2 F4 E2 |[M:6/4] F4 z2 A2 A2 A2 |[M:2/2] F2 F2 B2 B2- | %34
w: vi sur tous les|dieux, je t’ai ser-|vi sur *|* tous les|dieux. O si je|pou- vois deux fois|
 BA A4 G2 | A4 z4 | z2 G2 B2 B2 | A2 F2 A3 B |[M:6/4] c2 CD EFGA B2 G2- |[M:2/2] G2 F4 E2 | %40
w: * nais- * *|tre,|Com- me je|te ser- vi- rois|mieux, te * * * * * * ser-|* vi- rois|
[M:6/4] F4 z2 A2 A2 A2 |[M:2/2] F2 F2 B2 B2- | BA A4 G2 | A4 z4 | z2 G2 B2 B2 | A2 F2 A3 B | %46
w: mieux. O si je|pou- vois deux fois|* * nais- *|tre,|Com- me je|te ser- vi- rois|
[M:6/4] c2 CD EFGA B2 G2- |[M:2/2] G2 F4 E2 | F8 |] %49
w: mieux, te * * * * * * ser-|* vi- rois|mieux.|
V:2
 c8 | z4 d4- | d4 z2 e2 | e2 e2 f3 e/d/ | c2 c2 f4- | f2 d2 d2 d2 | e6 c2 | c4 F4 | F2 G4 F2 | %9
w: Plus,|plus,|* plus|ne suis ce * *|* que j’ay|* es- té, Et|si ne|le puis|ja- mais es-|
 G2 G2 d3 d |[M:6/4] c2 e2 d2 d2 c4 | A4 c8 |[M:2/2] z4 d4- | d4 z2 e2 | e2 e2 f3 e/d/ | %15
w: tre; et si ne|le puis ja- mais es-|tre; Mon,|mon,|* mon|beau prin- temps * *|
 c2 c2 f4- | f2 d2 d2 d2 | e6 c2 | c4 z2 F2 | F2 G4 F2 | G2 G2 d3 d |[M:6/4] c2 e2 d2 d2 c4 | %22
w: * et mon|* es- té, ont|fait le|sault par|la fe- nes-|tre, ont fait le|sault par la fe- nes-|
[M:2/2] A2 c2 e4 | f4 _e4- | e2 c2 c3 c | c2 c2 A4 | A4 z2 A2 | A2 A2 dcde | f3 e d2 c2 | %29
w: tre. A- mour,|a- mour,|* tu as es-|té mon mais-|tre: Je|t’ai ser- vi * * *|* sur tous les|
 c2 e2 e2 e2 | f4 f4 | _e2 c2 c4 |[M:6/4] z2 c2 c2 c2 A2 A2 |[M:2/2] d2 d2 f4 | f4 z2 d2 | %35
w: dieux, je t’ai ser-|vi sur|tous les dieux.|O si je pou- vois|deux fois nais-|tre, Com-|
 f2 f2 c2 c2 | e2 e2 d3 d | f2 f2 c2 c2 |[M:6/4] e8 d4 |[M:2/2] c8 |[M:6/4] z2 c2 c2 c2 A2 A2 | %41
w: me je te ser-|vi- rois mieux, com-|me je te ser-|vi- rois|mieux.|O si je pou- vois|
[M:2/2] d2 d2 f4 | f4 z2 d2 | f2 f2 c2 c2 | e2 e2 d3 d | f2 f2 c2 c2 |[M:6/4] e8 d4 |[M:2/2] c8- | %48
w: deux fois nais-|tre, Com-|me je te ser-|vi- rois mieux, com-|me je te ser-|vi- rois|mieux.|
 c8 |] %49
w: |
V:3
 F8 | z2 B2 B2 B2 | G2 G2 c3 B/A/ | G2 G2 F2 c2 | A2 A2 d3 d | c2 B2 A2 A2 | c4 z2 G2 | %7
w: Plus,|plus ne suis|ce que j’ay * *|* es- té, Plus|ne suis ce que|j’ay es- té, Et|si, et|
 G2 A2 B3 B | A2 c4 =B2 | c2 c2 A2 B2 |[M:6/4] G2 c2 A2 B2 G4 | F4 F8 |[M:2/2] z2 B2 B2 B2 | %13
w: si ne le puis|ja- mais es-|tre, et si ne|le puis ja- mais es-|tre; Mon,|mon beau prin-|
 G2 G2 c3 B/A/ | G2 G2 F2 c2 | A2 A2 d3 d | c2 B2 A2 A2 | c4 z2 G2 | G2 A2 B3 B | A2 c4 =B2 | %20
w: temps et mon * *|* es- té, Mon|beau prin- temps et|mon es- té Ont|fait, ont|fait le sault par|la fe- nes-|
 c2 c2 A2 B2 |[M:6/4] G2 c2 A2 B2 G4 |[M:2/2] F2 F2 c4 | d4 B4- | B2 A2 G2 G2 | e2 e2 d4 | c8 | %27
w: tre, ont fait le|sault par la fe- nes-|tre. A- mour,|a- mour,|* tu as es-|té mon mais-|tre:|
 z2 A2 A2 A2 | d3 c B2 A2 | G4 z2 c2 | c2 c2 d3 c | B2 A2 G4 |[M:6/4] F2 A2 A2 A2 F2 F2 | %33
w: Je t’ai ser-|vi sur tous les|dieux, je|t’ai ser- vi sur|tous * les|dieux. O si je pou- vois|
[M:2/2] B2 A2 d4 | c2 BA B4 | A4 z2 A2 | c2 c2 B2 G2 | d2 d2 A4 |[M:6/4] A2 c2 c2 G4 B2 | %39
w: deux fois nais-||tre, Com-|me je te ser-|vi- rois mieux,|com- me je te ser-|
[M:2/2] A4 G4 |[M:6/4] F2 A2 A2 A2 F2 F2 |[M:2/2] B2 A2 d4 | c2 BA B4 | A4 z2 A2 | c2 c2 B2 G2 | %45
w: vi- rois|mieux. O si je pou- vois|deux fois nais-||tre, Com-|me je te ser-|
 d2 d2 A4 |[M:6/4] A2 c2 c2 G4 B2 |[M:2/2] A4 G4 | F8 |] %49
w: vi- rois mieux,|com- me je te ser-|vi- rois|mieux.|
V:4
 z8 | B,,8 | z4 C,4- | C,4 z2 F,2 | F,2 F,2 D,3 E, | F,2 G,2 D,4 | z4 C,4 | C,2 C,2 B,,3 C, | %8
w: |Plus,|plus,|* plus|ne suis ce que|j’ay es- té,|Et|si ne le puis|
 D,2 C,2 D,4 | C,2 C,2 D,2 B,,2 |[M:6/4] C,3 C, D,2 B,,2 C,4 | F,,8 z4 |[M:2/2] B,,8 | z4 C,4- | %14
w: ja- mais es-|tre, et si ne|le puis ja- mais es-|tre;|Mon,|mon,|
 C,4 z2 F,2 | F,2 F,2 D,3 E, | F,2 G,2 D,4 | z4 C,4 | C,2 C,2 B,,3 C, | D,2 C,2 D,4 | %20
w: * mon|beau prin- temps et|mon es- té,|Ont|fait le sault par|la fe- nes-|
 C,2 C,2 D,2 B,,2 |[M:6/4] C,3 C, D,2 B,,2 C,4 |[M:2/2] F,,4 z4 | B,,4 _E,4- | E,2 F,2 C,3 C, | %25
w: tre, ont fait le|sault par la fe- nes-|tre.|A- mour,|* tu as es-|
 C,2 C,2 D,4 | A,,2 A,,2 A,,2 A,,2 | D,6 D,2 | B,,4 B,,4 | C,4 z2 C,2 | F,2 F,2 B,,2 B,,2 | %31
w: té mon mais-|tre: Je t’ai ser-|vi sur|tous les|dieux, je|t’ai ser- vi sur|
 _E,2 F,2 C,4 |[M:6/4] F,,8 z2 D,2 |[M:2/2] D,2 D,2 B,,2 B,,2 | F,2 F,2 G,4 | D,2 D,2 F,2 F,2 | %36
w: tous * les|dieux. O|si je pou- vois|deux fois nais-|tre, Com- me je|
 C,2 C,2 G,2 G,2 | D,3 E, F,4 |[M:6/4] z2 A,,2 C,2 C,2 G,,2 G,,2 |[M:2/2] A,,3 B,, C,4 | %40
w: te ser- vi- rois|mieux, * *|com- me je te ser-|vi- * rois|
[M:6/4] F,,8 z2 D,2 |[M:2/2] D,2 D,2 B,,2 B,,2 | F,2 F,2 G,4 | D,2 D,2 F,2 F,2 | C,2 C,2 G,2 G,2 | %45
w: mieux. O|si je pou- vois|deux fois nais-|tre, Com- me je|te ser- vi- rois|
 D,3 E, F,4 |[M:6/4] z2 A,,2 C,2 C,2 G,,2 G,,2 |[M:2/2] A,,3 B,, C,4 | F,,8 |] %49
w: mieux, * *|com- me je te ser-|vi- * rois|mieux.|

